packages/icons/src/queue-step.svg

<svg width="32" height="24" viewBox="0 0 32 24" fill="none" xmlns="http://www.w3.org/2000/svg">
<path fill-rule="evenodd" clip-rule="evenodd" d="M23.0887 16.866L19.1799 12.9573C18.9401 12.7174 18.9401 12.3285 19.1799 12.0887L23.0887 8.1799C23.3285 7.94004 23.7174 7.94004 23.9573 8.1799C24.1972 8.41976 24.1972 8.80865 23.9573 9.04852L21.097 11.9088H30.4888C30.828 11.9088 31.103 12.1838 31.103 12.523C31.103 12.8622 30.828 13.1372 30.4888 13.1372L21.097 13.1372L23.9573 15.9974C24.1972 16.2373 24.1972 16.6262 23.9573 16.866C23.7174 17.1059 23.3285 17.1059 23.0887 16.866Z" fill="black"/>
<path fill-rule="evenodd" clip-rule="evenodd" d="M8.01434 8.1799L11.9231 12.0887C12.163 12.3285 12.163 12.7174 11.9231 12.9573L8.01434 16.866C7.77448 17.1059 7.38559 17.1059 7.14573 16.866C6.90587 16.6262 6.90587 16.2373 7.14573 15.9974L10.006 13.1372L0.614202 13.1372C0.274987 13.1372 -8.50131e-07 12.8622 -7.90821e-07 12.523C-7.31511e-07 12.1838 0.274987 11.9088 0.614203 11.9088L10.006 11.9088L7.14573 9.04851C6.90587 8.80865 6.90587 8.41976 7.14573 8.1799C7.38559 7.94004 7.77448 7.94004 8.01434 8.1799Z" fill="black"/>
<line x1="15.5" y1="1" x2="15.5" y2="23" stroke="black" stroke-width="2" stroke-linecap="round"/>
</svg>

<svg viewBox="0 0 32 24" xmlns="http://www.w3.org/2000/svg"><path fill-rule="evenodd" clip-rule="evenodd" d="m23.089 16.866-3.91-3.909a.614.614 0 0 1 0-.868l3.91-3.91a.614.614 0 1 1 .868.87l-2.86 2.86h9.392a.614.614 0 0 1 0 1.228h-9.392l2.86 2.86a.614.614 0 1 1-.868.869ZM8.014 8.18l3.91 3.909c.239.24.239.628 0 .868l-3.91 3.909a.614.614 0 1 1-.868-.869l2.86-2.86H.614a.614.614 0 0 1 0-1.228h9.392l-2.86-2.86a.614.614 0 0 1 .868-.87Z"/><path stroke="#000" stroke-width="2" stroke-linecap="round" d="M15.5 1v22"/></svg>
